images/contacts/graphic.svg

<svg width="62" height="62" viewBox="0 0 62 62" fill="none" xmlns="http://www.w3.org/2000/svg">
<rect width="62" height="62" fill="white"/>
<path d="M58.5 5H58V3C58 2.73478 57.8946 2.48043 57.7071 2.29289C57.5196 2.10536 57.2652 2 57 2H53C52.7348 2 52.4804 2.10536 52.2929 2.29289C52.1054 2.48043 52 2.73478 52 3V5H46V3C46 2.73478 45.8946 2.48043 45.7071 2.29289C45.5196 2.10536 45.2652 2 45 2H41C40.7348 2 40.4804 2.10536 40.2929 2.29289C40.1054 2.48043 40 2.73478 40 3V5H34V3C34 2.73478 33.8946 2.48043 33.7071 2.29289C33.5196 2.10536 33.2652 2 33 2H29C28.7348 2 28.4804 2.10536 28.2929 2.29289C28.1054 2.48043 28 2.73478 28 3V5H22V3C22 2.73478 21.8946 2.48043 21.7071 2.29289C21.5196 2.10536 21.2652 2 21 2H17C16.7348 2 16.4804 2.10536 16.2929 2.29289C16.1054 2.48043 16 2.73478 16 3V5H10V3C10 2.73478 9.89464 2.48043 9.70711 2.29289C9.51957 2.10536 9.26522 2 9 2H5C4.73478 2 4.48043 2.10536 4.29289 2.29289C4.10536 2.48043 4 2.73478 4 3V5H3.5C2.57206 5.00103 1.68241 5.3701 1.02626 6.02626C0.370104 6.68241 0.00102566 7.57206 0 8.5V52.5C0.00102566 53.4279 0.370104 54.3176 1.02626 54.9737C1.68241 55.6299 2.57206 55.999 3.5 56H16.3188C20.2378 59.8456 25.5093 62 31 62C36.4907 62 41.7622 59.8456 45.6813 56H58.5C59.4279 55.999 60.3176 55.6299 60.9737 54.9737C61.6299 54.3176 61.999 53.4279 62 52.5V8.5C61.999 7.57206 61.6299 6.68241 60.9737 6.02626C60.3176 5.3701 59.4279 5.00103 58.5 5ZM54 4H56V8H54V4ZM42 4H44V8H42V4ZM30 4H32V8H30V4ZM18 4H20V8H18V4ZM6 4H8V8H6V4ZM31 60C20.5238 60 12 51.4762 12 41C12 30.5238 20.5238 22 31 22C41.4762 22 50 30.5238 50 41C50 51.4762 41.4762 60 31 60ZM60 52.5C59.9997 52.8977 59.8415 53.2791 59.5603 53.5603C59.2791 53.8415 58.8977 53.9997 58.5 54H47.4813C50.4118 50.301 52.0044 45.7192 52 41C52 29.42 42.58 20 31 20C19.42 20 10 29.42 10 41C9.99562 45.7192 11.5882 50.301 14.5188 54H3.5C3.10228 53.9997 2.72094 53.8415 2.43971 53.5603C2.15847 53.2791 2.00033 52.8977 2 52.5V13H60V52.5ZM60 11H2V8.5C2.00033 8.10228 2.15847 7.72094 2.43971 7.43971C2.72094 7.15847 3.10228 7.00033 3.5 7H4V9C4 9.26522 4.10536 9.51957 4.29289 9.70711C4.48043 9.89464 4.73478 10 5 10H9C9.26522 10 9.51957 9.89464 9.70711 9.70711C9.89464 9.51957 10 9.26522 10 9V7H16V9C16 9.26522 16.1054 9.51957 16.2929 9.70711C16.4804 9.89464 16.7348 10 17 10H21C21.2652 10 21.5196 9.89464 21.7071 9.70711C21.8946 9.51957 22 9.26522 22 9V7H28V9C28 9.26522 28.1054 9.51957 28.2929 9.70711C28.4804 9.89464 28.7348 10 29 10H33C33.2652 10 33.5196 9.89464 33.7071 9.70711C33.8946 9.51957 34 9.26522 34 9V7H40V9C40 9.26522 40.1054 9.51957 40.2929 9.70711C40.4804 9.89464 40.7348 10 41 10H45C45.2652 10 45.5196 9.89464 45.7071 9.70711C45.8946 9.51957 46 9.26522 46 9V7H52V9C52 9.26522 52.1054 9.51957 52.2929 9.70711C52.4804 9.89464 52.7348 10 53 10H57C57.2652 10 57.5196 9.89464 57.7071 9.70711C57.8946 9.51957 58 9.26522 58 9V7H58.5C58.8977 7.00033 59.2791 7.15847 59.5603 7.43971C59.8415 7.72094 59.9997 8.10228 60 8.5V11Z" fill="#CB8734"/>
<path d="M31 24C21.6263 24 14 31.6263 14 41C14 50.3737 21.6263 58 31 58C40.3737 58 48 50.3737 48 41C48 31.6263 40.3737 24 31 24ZM31 56C28.0333 56 25.1332 55.1203 22.6664 53.472C20.1997 51.8238 18.2771 49.4811 17.1418 46.7402C16.0065 43.9994 15.7094 40.9834 16.2882 38.0736C16.867 35.1639 18.2956 32.4912 20.3934 30.3934C22.4912 28.2956 25.1639 26.867 28.0736 26.2882C30.9834 25.7094 33.9994 26.0065 36.7402 27.1418C39.4811 28.2771 41.8238 30.1997 43.472 32.6664C45.1203 35.1332 46 38.0333 46 41C45.9956 44.9769 44.4138 48.7896 41.6017 51.6017C38.7896 54.4138 34.9769 55.9956 31 56Z" fill="#CB8734"/>
<path d="M32 40.5858V31C32 30.7348 31.8946 30.4804 31.7071 30.2929C31.5196 30.1054 31.2652 30 31 30C30.7348 30 30.4804 30.1054 30.2929 30.2929C30.1054 30.4804 30 30.7348 30 31V41C30 41.1313 30.0259 41.2614 30.0761 41.3827C30.1264 41.504 30.2 41.6143 30.2929 41.7071L34.2929 45.7071C34.4804 45.8947 34.7348 46 35 46C35.2652 46 35.5196 45.8947 35.7071 45.7071C35.8947 45.5196 36 45.2652 36 45C36 44.7348 35.8947 44.4804 35.7071 44.2929L32 40.5858Z" fill="#CB8734"/>
</svg>

<svg width="62" height="62" fill="none" xmlns="http://www.w3.org/2000/svg"><path fill="#fff" d="M0 0h62v62H0z"/><path d="M58.5 5H58V3a1 1 0 0 0-1-1h-4a1 1 0 0 0-1 1v2h-6V3a1 1 0 0 0-1-1h-4a1 1 0 0 0-1 1v2h-6V3a1 1 0 0 0-1-1h-4a1 1 0 0 0-1 1v2h-6V3a1 1 0 0 0-1-1h-4a1 1 0 0 0-1 1v2h-6V3a1 1 0 0 0-1-1H5a1 1 0 0 0-1 1v2h-.5A3.504 3.504 0 0 0 0 8.5v44A3.504 3.504 0 0 0 3.5 56h12.819a20.961 20.961 0 0 0 29.362 0H58.5a3.504 3.504 0 0 0 3.5-3.5v-44A3.504 3.504 0 0 0 58.5 5zM54 4h2v4h-2V4zM42 4h2v4h-2V4zM30 4h2v4h-2V4zM18 4h2v4h-2V4zM6 4h2v4H6V4zm25 56c-10.476 0-19-8.524-19-19s8.524-19 19-19 19 8.524 19 19-8.524 19-19 19zm29-7.5a1.501 1.501 0 0 1-1.5 1.5H47.481A20.903 20.903 0 0 0 52 41c0-11.58-9.42-21-21-21s-21 9.42-21 21a20.903 20.903 0 0 0 4.519 13H3.5A1.501 1.501 0 0 1 2 52.5V13h58v39.5zM60 11H2V8.5A1.501 1.501 0 0 1 3.5 7H4v2a1 1 0 0 0 1 1h4a1 1 0 0 0 1-1V7h6v2a1 1 0 0 0 1 1h4a1 1 0 0 0 1-1V7h6v2a1 1 0 0 0 1 1h4a1 1 0 0 0 1-1V7h6v2a1 1 0 0 0 1 1h4a1 1 0 0 0 1-1V7h6v2a1 1 0 0 0 1 1h4a1 1 0 0 0 1-1V7h.5A1.501 1.501 0 0 1 60 8.5V11z" fill="#CB8734"/><path d="M31 24c-9.374 0-17 7.626-17 17 0 9.374 7.626 17 17 17 9.374 0 17-7.626 17-17 0-9.374-7.626-17-17-17zm0 32a15 15 0 1 1 15-15 15.017 15.017 0 0 1-15 15z" fill="#CB8734"/><path d="M32 40.586V31a1 1 0 0 0-2 0v10a1.001 1.001 0 0 0 .293.707l4 4a1 1 0 1 0 1.414-1.414L32 40.586z" fill="#CB8734"/></svg>
